!!!SOCIAL_FUNCTION:	bird dance songs
!!!PDT:	1956
!!!OTL: No_183_Old_Man's_Dance_Song_(b).krn
!!!LANG: Non-Tone
!!!LING_GROUP: Muskogean
!!!REG: Florida
**kern
*staff1
=1-
*clefF4
*k[b-e-a-]
*M3/4
(4B-\
8G\)
32B-\LLK
16.G\JJ
(16A-\LK
8G\)
16G\Jk
=2||
*M2/4
8A-\L
8G\J
8A-\
8r
=3||
*M3/4
4.B-\
16B-\LL
16G\JJ
16A-\LK
8G\
16G\Jk
=4||
*M3/8
8E-\L
8E-\
8E-\J
=5
=
*M2/4
8B-\L
16B-\L
16G\JJ
(16A-\LK
8G\)
16G\Jk
=6
8A-\L
8G\J
8A-\
8r
=7
12B-\L
12G\
24A-\L
24G\JJ
16A-\LK
8G\
16G\Jk
=8||
*M3/8
8E-\L
8E-\
8E-\J
==:|!
*-
